X: 31703
T: Passport Ljubljana
R: jig
M: 6/8
K: Aminor
M: 5/8
|:DEE DB,|B,C C2 B,|A,B,C DF|EFD E2|DEE B,E|B,C C2 B,|A,FD CB,|C3 C2:|
|:EG G2 c|c2 A AG|EGG DF|EFD E2|E2 ^G GA|A2 G FE|FED CB,|C3 C2:|

